Adwaita++/emotes/symbolic/face-hat-symbolic.svg

<svg xmlns="http://www.w3.org/2000/svg" width="16" height="16" version="1.1">
 <path fill="#444444" fill-rule="evenodd" d="m 14.9291,9.00009 -13.85367,0.03113 c 0.49861,3.37708 3.40892,5.96878 6.92457,5.96878 3.5264,0 6.4438,-2.6077 6.9291,-5.99991 z m -10.52291,0.99991 h 7.18751 c 0.2216,0 0.4062,0.223 0.4062,0.5 0,0.277 -0.1846,0.5 -0.4062,0.5 h -7.18751 c -0.2216,0 -0.40625,-0.223 -0.40625,-0.5 0,-0.277 0.18465,-0.5 0.40625,-0.5 z" clip-rule="evenodd"/>
 <path fill="#444444" d="M 4.0234375 0 C 3.7962875 0 3.573258125 0.067299525 3.392578125 0.205078125 C 3.211908125 0.342856125 3.084216875 0.5373365 3.029296875 0.7578125 L 2.279296875 3.7578125 C 2.236286875 3.9336525 2.241441875 4.118075625 2.294921875 4.291015625 L 2.294921875 4.29296875 L 0.294921875 6.29296875 C 0.155231875 6.43269875 0.060116075 6.6109175 0.021484375 6.8046875 C -0.017147325 6.9984475 4.68e-05 7.198239375 0.078125 7.380859375 C 0.1535478 7.563479375 0.2812085 7.720038125 0.4453125 7.830078125 C 0.6094165 7.940118125 0.802417 7.99956 1 8 L 2 8 L 14 8 L 15 8 C 15.1977 7.99996 15.3902875 7.94192125 15.5546875 7.83203125 C 15.7190875 7.72215125 15.84812813 7.5655125 15.92382812 7.3828125 C 15.99952812 7.2001125 16.01906875 6.9986375 15.98046875 6.8046875 C 15.94186875 6.6107375 15.84683125 6.43281875 15.70703125 6.29296875 L 13.70703125 4.29296875 L 13.70703125 4.291015625 C 13.76053125 4.118075625 13.76565625 3.9336525 13.72265625 3.7578125 L 12.97265625 0.7578125 C 12.91345625 0.5203335 12.77035937 0.312052125 12.56835938 0.173828125 C 12.36635938 0.035603925 12.11975313 -0.0227767 11.87695312 0 L 8.001953125 0.4921875 L 4.126953125 0 L 4.0234375 0 z"/>
</svg>

<svg height="16" width="16" xmlns="http://www.w3.org/2000/svg">
  <g fill="#444">
    <path clip-rule="evenodd" d="m14.9291 9.00009-13.85367.03113c.49861 3.37708 3.40892 5.96878 6.92457 5.96878 3.5264 0 6.4438-2.6077 6.9291-5.99991zm-10.52291.99991h7.18751c.2216 0 .4062.223.4062.5s-.1846.5-.4062.5h-7.18751c-.2216 0-.40625-.223-.40625-.5s.18465-.5.40625-.5z" fill-rule="evenodd"/>
    <path d="m4.0234375 0c-.22715 0-.45017937.06729953-.63085937.20507813-.18067.137778-.30836125.33225837-.36328125.55273437l-.75 3c-.04301001.17584-.037855.36026313.015625.53320313v.00195312l-2 2c-.13969.13973-.2348058.31794875-.2734375.51171875-.03863171.19376-.02143758.39355188.05664062.57617188.0754228.18262.2030835.33917875.3671875.44921875s.3571045.16948187.5546875.16992187h1 12 1c.1977-.00004.3902875-.05807875.5546875-.16796875.1644-.10988.29344063-.26651875.36914062-.44921875.0757-.1827.09524063-.384175.05664063-.578125s-.1336375-.37186875-.2734375-.51171875l-2-2v-.00195312c.0535-.17294.058625-.35736313.015625-.53320313l-.75-3c-.0592-.237479-.20229688-.44576037-.40429687-.58398437-.202-.1382242-.44860625-.19660483-.69140626-.17382813l-3.87499999.4921875-3.875-.4921875z"/>
  </g>
</svg>
